src/assets/outline/StatusUp.svg

<svg width="24" height="24" viewBox="0 0 24 24"  xmlns="http://www.w3.org/2000/svg">
<path d="M6.87988 18.9001C6.46988 18.9001 6.12988 18.5601 6.12988 18.1501V16.0801C6.12988 15.6701 6.46988 15.3301 6.87988 15.3301C7.28988 15.3301 7.62988 15.6701 7.62988 16.0801V18.1501C7.62988 18.5701 7.28988 18.9001 6.87988 18.9001Z" />
<path d="M12 18.9C11.59 18.9 11.25 18.56 11.25 18.15V14C11.25 13.59 11.59 13.25 12 13.25C12.41 13.25 12.75 13.59 12.75 14V18.15C12.75 18.57 12.41 18.9 12 18.9Z" />
<path d="M17.1201 18.8997C16.7101 18.8997 16.3701 18.5597 16.3701 18.1497V11.9297C16.3701 11.5197 16.7101 11.1797 17.1201 11.1797C17.5301 11.1797 17.8701 11.5197 17.8701 11.9297V18.1497C17.8701 18.5697 17.5401 18.8997 17.1201 18.8997Z" />
<path d="M6.88007 13.1804C6.54007 13.1804 6.24007 12.9504 6.15007 12.6104C6.05007 12.2104 6.29007 11.8004 6.70007 11.7004C10.3801 10.7804 13.6201 8.77041 16.0901 5.90041L16.5501 5.36041C16.8201 5.05041 17.2901 5.01041 17.6101 5.28041C17.9201 5.55041 17.9601 6.02041 17.6901 6.34041L17.2301 6.88041C14.5601 10.0004 11.0401 12.1704 7.06007 13.1604C7.00007 13.1804 6.94007 13.1804 6.88007 13.1804Z" />
<path d="M17.1199 9.51961C16.7099 9.51961 16.3699 9.17961 16.3699 8.76961V6.59961H14.1899C13.7799 6.59961 13.4399 6.25961 13.4399 5.84961C13.4399 5.43961 13.7799 5.09961 14.1899 5.09961H17.1199C17.5299 5.09961 17.8699 5.43961 17.8699 5.84961V8.77961C17.8699 9.18961 17.5399 9.51961 17.1199 9.51961Z" />
<path d="M15 22.75H9C3.57 22.75 1.25 20.43 1.25 15V9C1.25 3.57 3.57 1.25 9 1.25H15C20.43 1.25 22.75 3.57 22.75 9V15C22.75 20.43 20.43 22.75 15 22.75ZM9 2.75C4.39 2.75 2.75 4.39 2.75 9V15C2.75 19.61 4.39 21.25 9 21.25H15C19.61 21.25 21.25 19.61 21.25 15V9C21.25 4.39 19.61 2.75 15 2.75H9Z" />
</svg>

<?xml version="1.0" encoding="UTF-8"?>
<svg width="24" height="24" viewBox="0 0 24 24" xmlns="http://www.w3.org/2000/svg">
 <path d="m6.8799 18.9c-0.41 0-0.75-0.34-0.75-0.75v-2.07c0-0.41 0.34-0.75 0.75-0.75s0.75 0.34 0.75 0.75v2.07c0 0.42-0.34 0.75-0.75 0.75z"/>
 <path d="m12 18.9c-0.41 0-0.75-0.34-0.75-0.75v-4.15c0-0.41 0.34-0.75 0.75-0.75s0.75 0.34 0.75 0.75v4.15c0 0.42-0.34 0.75-0.75 0.75z"/>
 <path d="m17.12 18.9c-0.41 0-0.75-0.34-0.75-0.75v-6.22c0-0.41 0.34-0.75 0.75-0.75s0.75 0.34 0.75 0.75v6.22c0 0.42-0.33 0.75-0.75 0.75z"/>
 <path d="m6.8801 13.18c-0.34 0-0.64-0.23-0.73-0.57-0.1-0.4 0.14-0.81 0.55-0.91 3.68-0.92 6.92-2.93 9.39-5.8l0.46-0.54c0.27-0.31 0.74-0.35 1.06-0.08 0.31 0.27 0.35 0.74 0.08 1.06l-0.46 0.54c-2.67 3.12-6.19 5.29-10.17 6.28-0.06 0.02-0.12 0.02-0.18 0.02z"/>
 <path d="m17.12 9.5196c-0.41 0-0.75-0.34-0.75-0.75v-2.17h-2.18c-0.41 0-0.75-0.34-0.75-0.75s0.34-0.75 0.75-0.75h2.93c0.41 0 0.75 0.34 0.75 0.75v2.93c0 0.41-0.33 0.74-0.75 0.74z"/>
 <path d="m15 22.75h-6c-5.43 0-7.75-2.32-7.75-7.75v-6c0-5.43 2.32-7.75 7.75-7.75h6c5.43 0 7.75 2.32 7.75 7.75v6c0 5.43-2.32 7.75-7.75 7.75zm-6-20c-4.61 0-6.25 1.64-6.25 6.25v6c0 4.61 1.64 6.25 6.25 6.25h6c4.61 0 6.25-1.64 6.25-6.25v-6c0-4.61-1.64-6.25-6.25-6.25h-6z"/>
</svg>
